X:1
T:On le ma dict
T:Mage
T:Source : Livre XVI de chansons nouvelles à 4 parties---Paris---P.Attaingnant---1545. Editor : André Vierendeels (29/06/18) Notes : Original clefs : C1, C3, C4, F4 Original note values have been halved Editorial accidentals above the staff Square brackets indicate ligatures m29 in Alto voice : first "E" notated as "F" in original print
T:On le ma dict
T:©
T:©
T:©
C:Mage
Z:©
%%score [ 1 2 3 4 ]
L:1/8
Q:1/4=120
M:2/2
K:C
V:1 treble nm="Soprano" snm="S"
V:2 treble nm="Alto" snm="A"
V:3 treble-8 nm="Tenor" snm="T"
V:4 bass nm="Bass" snm="B"
V:1
 G8 | G4 A4 | G4 z2 G2 | G2 E2 G3 A | B2 c4 B2- | BA A4 G2 | A8 | z2 A4 A2 | A4 G4 | z2 G2 G4- | %10
w: On|le m'a|dict, ie|ne l'ay pas _|_ son- *||gé,|il est|au- sy|que i'ay|
 G2 G2 G4 | F4 E4- | E8 | z2 E2 E2 D2 | E4 z2 G2 | G2 G4 c2- | c2 B2 A4 |"^#" G8 | z2 G2 A2 A2 | %19
w: _ d'a- mour|con- gié,|_|mais tant y|a pour-|veu que soys|_ con- ten-|té,|cau- se ie|
 G2 G4 E2- | E2 A2 G4- | G4 z2 G2 | c3 B A2 c2 | d2 e4 d2- | dc c4 B2 | c2 e4 e2 | e8 | d4 z2 d2 | %28
w: nay, cau- se|_ ie nay|_ qui|me grief- v'et tour-|men- * *||te, de quoy|tu|m'as pour|
 c2 A2 B2 c2- | c2 BA G4 |: z4 G4- | G4 G4 | A4 G4 | z2 G2 G2 E2 | G3 A B2 c2- | c2 B3 A A2- | %36
w: ung aul- tre chan-|* * * gé,|on|_ le|m'a dict,|ie ne l'ay|pas _ _ son-||
"^#" A2 G2 !fermata!A4 :| %37
w: * * gé.|
V:2
 E8 | E2 E3 DDC/D/ | E2 E2 E2 CD | EF G3 F E2 | D2 G3 FDE | F2 D2 E4 |"^#" z2 F4 F2 | F4 E4- | %8
w: On|le m'a _ _ _ _|dict, ie ne l'ay _|_ _ _ _ _|pas son- * * *|* * gé,|il est|au- sy|
 E4 z2 E2 | E6 E2 | E4 E4 | D4 z2 C2- | C2 B,2 C4 | B,4 z2 C2 | C2 B,2 C2 E2 | E6 E2 | E2 E2 E4 | %17
w: _ que|i'ay d'a-|mour con-|gié, mais|_ tant y|a, mais|tant y a pour-|veu que|soys con- ten-|
 E8 | z2 E2 E2 D2 | E4 z2 E2 | E2 D2 E2 E2 | G3 F E4- | E4 z2 C2 | F2 E2 G2 G2- | G2 F2 G4 | E8 | %26
w: té,|cau- se ia|nay, cau-|se ie nay qui|me grief- v'et|_ qui|me grief- v'et tour-|* * men-|te,|
 z2 G4 G2 | G4 G4 | z2 C2 F2 E2 | E2 D2 E4 |: z4 E4- | E4 E2 E2- | EDDC/D/ E2 E2 | E2 CD EF G2- | %34
w: de quoy|tu m'as|pour ung aul-|tre chan- gé,|on|_ le m'as|_ _ _ _ _ dict, ie|ne l'ay _ _ _ _|
 GF E2 D2 G2- | GFDE F2 D2 | E4 !fermata!C4 :| %37
w: _ _ _ pas son-||* gé.|
V:3
 B8 | c4 A4 | B2 G2 G2 E2 | G3 A B2 c2 | d2 e3 dBc | dcBA B4 | A4 z2 A2- | A2 A2 c4- | c4 B4 | %9
w: On|le m'a|dict, ie ne l'ay|pas _ _ son-|||, il|_ est au-|* sy|
 z2 B2 B4- | B2 B2 c2 c2 | A4 z2 A2- | A2 G2 A4 | E4 z2 A2 | A2 G2 A2 B2 | G2 G4 A2- | A2 B2 c4 | %17
w: que i'ay|_ d'a- mour con-|gié, mais|_ tant y|a, mais|tant y a pour-|veu que soys|_ con- ten-|
 B4 z2 G2- | G2 E2 A4 | B4 z2 B2 | c2 A2 B2 c2 | z2 G2 c3 B | A2 G2 A3 G | F2 G3 A B2 | c4 d4 | %25
w: té, cau-|* se ie|nay, cau-|se ie _ nay,|qui me grief-|v'et tour- men- *|||
 c8 | z2 c2 c2 c2 | B4 z2 B2 | A2 A2 G4 | A4 B4 |: z4 B4- | B4 c4 | A4 B2 G2 | G2 E2 G3 A | %34
w: te,|de quoy tu|m'as pour|ung aul- tre|chan- gé,|on|_ le|m'a dict, ie|ne l'ay pas _|
 B2 c2 d2 e2- | edBc dcBA | B4 !fermata!A4 :| %37
w: _ son- * *||* gé.|
V:4
 E,8 | C,4 F,4 | E,8 | z2 E,2 E,2 C,2 | G,2 C,D, E,F, G,2 | D,2 F,2 E,4 | A,,2 D,4 D,2 | %7
w: On|le m'a|dict,|ie ne l'ay|pas son- * * * *||gé, il est|
 D,4 A,,2 A,2 | A,2 A,2 E,4- | E,4 z2 E,2 | E,4 C,4 | D,4 A,,4 | E,4 z2 A,2- | A,2 G,2 F,4 | %14
w: au- sy, il|est au- sy|_ que|i'ay d'a-|mour con-|gié, mais|_ tant y|
 E,4 z2 E,2 | E,2 C,4 A,,2- | A,,2 G,,2 A,,4 | E,4 z2 E,2- | E,2 C,2 F,4 | E,4 z2 E,2 | %20
w: a pour-|veu que soys|_ con- ten|té, cau-|* se ie|nay, cau-|
 C,2 F,2 E,2 C,2 | E,3 D, C,4 | z2 C,2 F,3 E, | D,2 C,D, E,F, G,2 | A,4 G,4 | C,4 z2 C,2- | %26
w: se ie nay qui|me grief- ve,|qui me grief'v'et|tour- men- * * * *||te, de|
 C,2 C,2 C,4 | G,8 | z2 F,2 E,2 C,2 | F,2 F,2 E,4 |: z4 E,4- | E,4 C,4 | F,4 E,4- | E,4 z2 E,2 | %34
w: _ quoy tu|m'as|pour ung aul-|tre chan- gé,|on|_ le|m'a dict,|_ ie|
 E,2 C,2 G,2 C,D, | E,F, G,2 D,2 F,2 | E,4 !fermata!A,,4 :| %37
w: ne l'ay pas son- *||* gé.|

